X:535
T: Padraig O'Keeffe's #2
S: "Johnny O'Leary of Sliabh Luachra" (#132)
Z: B.Black
L: 1/8
M: 12/8
R: slide
Q: 360
K: D
g|fed B2d A2d F2A|BAF D2F E2 z g3|
fed Bcd A2d F2A|1 BAF E2F D3 D2 :|2\
BAF E2F D3 D3||
f3 a2 aba f a2f|fdf a2d g3 bge|
fdf a2 aba f a2f|fef a2f d3 d2e|
fef a2a baf a2f|fef afd g3 gfe|
fga efg fed B/=c/^cd|ABA GFE D3 g3||
